public/icons/iconnetwork4.svg

<svg width="69" height="68" viewBox="0 0 69 68" fill="none" xmlns="http://www.w3.org/2000/svg">
<path fill-rule="evenodd" clip-rule="evenodd" d="M26.0681 47.84C18.5881 47.84 12.5361 41.754 12.5361 34.308C12.5361 26.828 18.5881 20.776 26.0681 20.776C29.5701 20.776 32.8001 22.102 35.1801 24.312L38.0021 21.524C32.8681 14.792 37.6621 5 46.1621 5C51.8401 5 56.4641 9.59 56.4641 15.268C56.4641 24.244 45.7201 28.902 39.1921 22.816L36.4041 25.604C40.4161 30.364 40.6881 37.232 36.9821 42.264L39.6001 44.882C46.2301 39.306 56.4641 44.032 56.4641 52.736C56.4641 58.414 51.8401 63.004 46.1961 63.004C37.4581 63.004 32.7321 52.736 38.3421 46.106L35.8601 43.624C33.3781 46.208 29.9101 47.84 26.0681 47.84ZM26.0681 22.51C19.5741 22.51 14.3041 27.814 14.3041 34.308C14.3041 40.802 19.5741 46.072 26.0681 46.072C32.5621 46.072 37.8321 40.802 37.8321 34.308C37.8321 27.814 32.5621 22.51 26.0681 22.51ZM30.7601 43.182H21.3761C20.9001 43.182 20.4921 42.808 20.4921 42.298V38.32C20.4921 35.6 22.7021 33.424 25.3881 33.424H26.7481C29.4341 33.424 31.6101 35.6 31.6101 38.32V42.298C31.6101 42.808 31.2361 43.182 30.7601 43.182ZM22.2601 41.448H23.4161H25.1841C25.1841 40.292 25.1841 37.912 25.1841 39.068V41.448H26.9521H28.6861C28.6861 40.292 28.6861 39.068 28.6861 39.068V41.448H29.8761V38.32C29.8761 36.586 28.4481 35.192 26.7481 35.192H25.3881C23.6541 35.192 22.2601 36.586 22.2601 38.32V41.448ZM26.0681 32.438C23.9261 32.438 22.1581 30.67 22.1581 28.528C22.1581 26.352 23.9261 24.618 26.0681 24.618C28.2101 24.618 29.9781 26.352 29.9781 28.528C29.9781 30.67 28.2101 32.438 26.0681 32.438ZM26.0681 26.352C23.2461 26.352 23.2461 30.67 26.0681 30.67C28.8901 30.67 28.8901 26.352 26.0681 26.352ZM46.1961 44.236C41.5041 44.236 37.6621 48.044 37.6621 52.736C37.6621 57.428 41.5041 61.27 46.1961 61.27C50.8881 61.27 54.6961 57.428 54.6961 52.736C54.6961 48.044 50.8881 44.236 46.1961 44.236ZM46.1621 6.734C41.4701 6.734 37.6621 10.576 37.6621 15.268C37.6621 19.994 41.4701 23.802 46.1621 23.802C50.8881 23.802 54.6961 19.994 54.6961 15.268C54.6961 10.576 50.8881 6.734 46.1621 6.734Z" fill="#3A67B1"/>
</svg>

<svg xmlns="http://www.w3.org/2000/svg" fill="none" viewBox="0 0 69 68">
  <path fill="#3A67B1" fill-rule="evenodd" d="M26.068 47.84c-7.48 0-13.532-6.086-13.532-13.532 0-7.48 6.052-13.532 13.532-13.532 3.502 0 6.732 1.326 9.112 3.536l2.822-2.788C32.868 14.792 37.662 5 46.162 5c5.678 0 10.302 4.59 10.302 10.268 0 8.976-10.744 13.634-17.272 7.548l-2.788 2.788c4.012 4.76 4.284 11.628.578 16.66l2.618 2.618c6.63-5.576 16.864-.85 16.864 7.854 0 5.678-4.624 10.268-10.268 10.268-8.738 0-13.464-10.268-7.854-16.898l-2.482-2.482c-2.482 2.584-5.95 4.216-9.792 4.216Zm0-25.33c-6.494 0-11.764 5.304-11.764 11.798s5.27 11.764 11.764 11.764 11.764-5.27 11.764-11.764-5.27-11.798-11.764-11.798Zm4.692 20.672h-9.384a.878.878 0 0 1-.884-.884V38.32c0-2.72 2.21-4.896 4.896-4.896h1.36c2.686 0 4.862 2.176 4.862 4.896v3.978c0 .51-.374.884-.85.884Zm-8.5-1.734h2.924v-2.38 2.38h3.502v-2.38 2.38h1.19V38.32a3.142 3.142 0 0 0-3.128-3.128h-1.36a3.12 3.12 0 0 0-3.128 3.128v3.128Zm3.808-9.01c-2.142 0-3.91-1.768-3.91-3.91a3.91 3.91 0 0 1 7.82 0c0 2.142-1.768 3.91-3.91 3.91Zm0-6.086c-2.822 0-2.822 4.318 0 4.318s2.822-4.318 0-4.318Zm20.128 17.884c-4.692 0-8.534 3.808-8.534 8.5s3.842 8.534 8.534 8.534 8.5-3.842 8.5-8.534-3.808-8.5-8.5-8.5Zm-.034-37.502c-4.692 0-8.5 3.842-8.5 8.534 0 4.726 3.808 8.534 8.5 8.534a8.518 8.518 0 0 0 8.534-8.534c0-4.692-3.808-8.534-8.534-8.534Z" clip-rule="evenodd"/>
</svg>
